X:132
T:Hole in the Hedge
M:6/8
L:1/8
R:Jig
K:D
"D"D2 F FEF| AFE "G"F2E|"D"D2 F FEF|"G"AFD "A"E2F|
"D"D2 F FEF|AFA "D/F#"d2(d|"G"d)ef edB|"Emi"AFD "A"E2D:|
"Bmi"d2f edB|"D"AFA "G"ABc|"D"d2f edB|"G"AFD "A"E2D|
"Bmi"d2f edB|"D"AFA "D/F#"ABc|"G"dcd BdB |"Emi"AFD "A"E2D:|
